docs/icons/behance.svg

<svg width="20" height="20" viewBox="0 0 20 20" fill="none" xmlns="http://www.w3.org/2000/svg">
<path d="M17.0703 0H2.92969C1.31424 0 0 1.31424 0 2.92969V17.0703C0 18.6858 1.31424 20 2.92969 20H17.0703C18.6858 20 20 18.6858 20 17.0703V2.92969C20 1.31424 18.6858 0 17.0703 0ZM18.8281 17.0703C18.8281 18.0396 18.0396 18.8281 17.0703 18.8281H2.92969C1.96045 18.8281 1.17188 18.0396 1.17188 17.0703V2.92969C1.17188 1.96045 1.96045 1.17188 2.92969 1.17188H17.0703C18.0396 1.17188 18.8281 1.96045 18.8281 2.92969V17.0703Z" fill="white"/>
<path d="M9.41406 8.24219C9.41406 6.94977 8.36273 5.89844 7.07031 5.89844H3.55469V14.1016H7.07031C8.36273 14.1016 9.41406 13.0502 9.41406 11.7578C9.41406 11.0583 9.10568 10.4298 8.61801 10C9.10568 9.57016 9.41406 8.94165 9.41406 8.24219ZM8.24219 11.7578C8.24219 12.404 7.71652 12.9297 7.07031 12.9297H4.72656V10.5859H7.07031C7.71652 10.5859 8.24219 11.1116 8.24219 11.7578ZM4.72656 9.41406V7.07031H7.07031C7.71652 7.07031 8.24219 7.59598 8.24219 8.24219C8.24219 8.8884 7.71652 9.41406 7.07031 9.41406H4.72656Z" fill="white"/>
<path d="M13.5156 8.24219C11.9002 8.24219 10.5859 9.55643 10.5859 11.1719C10.5859 12.7873 11.9002 14.1016 13.5156 14.1016C14.5583 14.1016 15.5305 13.5405 16.053 12.6372L15.0386 12.0503C14.7249 12.5928 14.1412 12.9297 13.5156 12.9297C12.7516 12.9297 12.1001 12.4399 11.8582 11.7578H16.4453V11.1719C16.4453 9.55643 15.1311 8.24219 13.5156 8.24219ZM11.8582 10.5859C12.1001 9.90387 12.7516 9.41406 13.5156 9.41406C14.2796 9.41406 14.9312 9.90387 15.173 10.5859H11.8582Z" fill="white"/>
<path d="M11.1719 5.89844H15.8594V7.07031H11.1719V5.89844Z" fill="white"/>
</svg>

<svg width="20" height="20" fill="none" xmlns="http://www.w3.org/2000/svg"><path d="M17.07 0H2.93A2.933 2.933 0 000 2.93v14.14A2.933 2.933 0 002.93 20h14.14A2.933 2.933 0 0020 17.07V2.93A2.933 2.933 0 0017.07 0zm1.758 17.07a1.76 1.76 0 01-1.758 1.758H2.93a1.76 1.76 0 01-1.758-1.758V2.93c0-.97.788-1.758 1.758-1.758h14.14c.97 0 1.758.788 1.758 1.758v14.14z" fill="#fff"/><path d="M9.414 8.242A2.346 2.346 0 007.07 5.898H3.555v8.204H7.07a2.346 2.346 0 002.344-2.344c0-.7-.308-1.328-.796-1.758.488-.43.796-1.058.796-1.758zm-1.172 3.516c0 .646-.525 1.172-1.172 1.172H4.727v-2.344H7.07c.647 0 1.172.526 1.172 1.172zM4.727 9.414V7.07H7.07a1.173 1.173 0 010 2.344H4.727zM13.516 8.242a2.933 2.933 0 00-2.93 2.93 2.933 2.933 0 002.93 2.93 2.94 2.94 0 002.537-1.465l-1.014-.587c-.314.543-.898.88-1.523.88a1.76 1.76 0 01-1.658-1.172h4.587v-.586a2.933 2.933 0 00-2.93-2.93zm-1.658 2.344a1.76 1.76 0 011.658-1.172c.764 0 1.415.49 1.657 1.172h-3.315zM11.172 5.898h4.687V7.07h-4.687V5.898z" fill="#fff"/></svg>
